!!!OTL: Nianjun dazhan shieryue
!!!ARE: Asia, China,ÿHenan Minquan
!! IV, 122
!!!SCT: C1942
!!!YEM: Copyright 1995, estate of Helmut Schaffrath.
**kern
*ICvox
*Ivox
*M2/4
*k[f#c#g#]
*A:
{4a
8a
8b
=1
8cc#
8ee
8cc#
8b
=2
4a
8a
8b
=3
8cc#
8ee
4b}
=4
{8.a
16b
8cc#
8ee
=5
8cc#
8b
4a
=6
8b
8cc#
8a
8f#
=7
2e}
=8
{8a
8f#
4a
=9
8r
4cc#
8b
=10
8.b
16e
8a
8b
=11
8g#
8f#
4e}
=12
{4b
4b
=13
8cc#
8d#
4e
=14
8e
8f#
8g#
8b
=15
8g#
8f#
4e}
==
!!!AGN: Xiaodiao
!!!AMT: simple duple
!!!AIN: vox
!!!EED: Helmut Schaffrath
!!!EEV: 1.0
*-
